libs/icons/src/svg/card-update.svg

<svg width="16" height="16" viewBox="0 0 16 16" fill="none" xmlns="http://www.w3.org/2000/svg">
<g clip-path="url(#clip0_4_504)">
<path fill-rule="evenodd" clip-rule="evenodd" d="M2 0C0.898477 0 0 0.898477 0 2V2.66667V4V6V7.33333V10.6667C0 11.7682 0.898477 12.6667 2 12.6667H6.66667V11.3333H2C1.63486 11.3333 1.33333 11.0318 1.33333 10.6667V7.33333H14.6667H16V6V4V2.66667V2C16 0.898477 15.1015 0 14 0H2ZM14.6667 2.66667V2C14.6667 1.63486 14.3651 1.33333 14 1.33333H2C1.63486 1.33333 1.33333 1.63486 1.33333 2V2.66667H14.6667ZM1.33333 4V6H14.6667V4H1.33333ZM12 10C11.0689 10 10.285 10.6369 10.063 11.4995L8.77171 11.1672C9.14167 9.7298 10.4457 8.66667 12 8.66667C13.0009 8.66667 13.898 9.10812 14.5083 9.80505L15.48 9.09937L15.1947 12L12.348 11.374L13.4222 10.5939C13.0591 10.2266 12.5558 10 12 10ZM12 14.6667C12.9311 14.6667 13.715 14.0298 13.937 13.1672L15.2283 13.4995C14.8583 14.9369 13.5543 16 12 16C10.9991 16 10.102 15.5586 9.49168 14.8616L8.52 15.5673L8.80533 12.6667L11.652 13.2927L10.5779 14.0728C10.9409 14.4401 11.4442 14.6667 12 14.6667Z" fill="#202327"/>
</g>
<defs>
<clipPath id="clip0_4_504">
<rect width="16" height="16" fill="white"/>
</clipPath>
</defs>
</svg>

<svg xmlns="http://www.w3.org/2000/svg" viewBox="0 0 16 16" class="sageicon"><path fill-rule="evenodd" d="M2 0C.898 0 0 .898 0 2v8.667c0 1.101.898 2 2 2h4.667v-1.334H2a.67.67 0 0 1-.667-.666V7.333H16V2c0-1.102-.899-2-2-2H2Zm12.667 2.667V2A.67.67 0 0 0 14 1.333H2A.67.67 0 0 0 1.333 2v.667h13.334ZM1.333 4v2h13.334V4H1.333ZM12 10c-.931 0-1.715.637-1.937 1.5l-1.291-.333a3.334 3.334 0 0 1 5.736-1.362l.972-.706L15.195 12l-2.847-.626 1.074-.78A1.993 1.993 0 0 0 12 10Zm0 4.667c.931 0 1.715-.637 1.937-1.5l1.291.332a3.334 3.334 0 0 1-5.736 1.363l-.972.705.285-2.9 2.847.626-1.074.78c.363.367.866.594 1.422.594Z"/></svg>
